;---> this code is for cnc-ino <---
; /Users/wazeer/mas/htmaa/machine_building/zen/public/test.png
; /Users/wazeer/mas/htmaa/machine_building/zen/public/test.gcode
; Img Size: (100,100)pixel to (700,700)mm
; Process Error: 0%
; Tool Diameter: 1
; Scale Axes: 700
; Deep Step: -1
; Z Save: 1
; Z White: 0
; Z Black: -2
G21 ; Set units to mm
G90 ; Absolute positioning
G01 Z1 ;X0 Y0 Z1 Line Init
G01 X42.4900 Y-238.4900 Z1 ;With Z max 
G01 X42.4900 Y-238.4900 F3000
G01 X42.4900 Y-238.4900 Z-1.0000
G01 X49.4900 Y-238.4900 Z-1.0000
G01 X56.4900 Y-238.4900 Z-1.0000
G01 X42.4900 Y-245.4900 Z-1.0000
G01 X49.4900 Y-245.4900 Z-1.0000
G01 X56.4900 Y-245.4900 Z-1.0000
G01 X42.4900 Y-252.4900 Z-1.0000
G01 X42.4900 Y-259.4900 Z-1.0000
G01 X42.4900 Y-266.4900 Z-1.0000
G01 X42.4900 Y-273.4900 Z-1.0000
G01 X42.4900 Y-280.4900 Z-1.0000
G01 X42.4900 Y-287.4900 Z-1.0000
G01 X42.4900 Y-294.4900 Z-1.0000
G01 X42.4900 Y-301.4900 Z-1.0000
G01 X42.4900 Y-308.4900 Z-1.0000
G01 X42.4900 Y-315.4900 Z-1.0000
G01 X42.4900 Y-322.4900 Z-1.0000
G01 X42.4900 Y-329.4900 Z-1.0000
G01 X42.4900 Y-336.4900 Z-1.0000
G01 X42.4900 Y-343.4900 Z-1.0000
G01 X42.4900 Y-350.4900 Z-1.0000
G01 X42.4900 Y-357.4900 Z-1.0000
G01 X42.4900 Y-364.4900 Z-1.0000
G01 X42.4900 Y-371.4900 Z-1.0000
G01 X42.4900 Y-378.4900 Z-1.0000
G01 X42.4900 Y-385.4900 Z-1.0000
G01 X42.4900 Y-392.4900 Z-1.0000
G01 X42.4900 Y-399.4900 Z-1.0000
G01 X42.4900 Y-406.4900 Z-1.0000
G01 X42.4900 Y-413.4900 Z-1.0000
G01 X42.4900 Y-420.4900 Z-0.8700
G01 Z1 F3000
G01 X49.4900 Y-252.4900 Z1 F3000
G01 Z-1.0000 F1200
G01 X49.4900 Y-259.4900 Z-1.0000
G01 X49.4900 Y-266.4900 Z-1.0000
G01 X49.4900 Y-273.4900 Z-1.0000
G01 X49.4900 Y-280.4900 Z-1.0000
G01 X49.4900 Y-287.4900 Z-1.0000
G01 X49.4900 Y-294.4900 Z-1.0000
G01 X49.4900 Y-301.4900 Z-1.0000
G01 X49.4900 Y-308.4900 Z-1.0000
G01 X49.4900 Y-315.4900 Z-1.0000
G01 X49.4900 Y-322.4900 Z-1.0000
G01 X49.4900 Y-329.4900 Z-1.0000
G01 X49.4900 Y-336.4900 Z-1.0000
G01 X49.4900 Y-343.4900 Z-1.0000
G01 X49.4900 Y-350.4900 Z-1.0000
G01 X49.4900 Y-357.4900 Z-1.0000
G01 X49.4900 Y-364.4900 Z-1.0000
G01 X49.4900 Y-371.4900 Z-1.0000
G01 X49.4900 Y-378.4900 Z-1.0000
G01 X49.4900 Y-385.4900 Z-1.0000
G01 X49.4900 Y-392.4900 Z-1.0000
G01 X49.4900 Y-399.4900 Z-1.0000
G01 X49.4900 Y-406.4900 Z-1.0000
G01 X49.4900 Y-413.4900 Z-1.0000
G01 X49.4900 Y-420.4900 Z-1.0000
G01 Z1 F3000
G01 X56.4900 Y-252.4900 Z1 F3000
G01 Z-1.0000 F1200
G01 X56.4900 Y-259.4900 Z-1.0000
G01 X56.4900 Y-266.4900 Z-1.0000
G01 X56.4900 Y-273.4900 Z-1.0000
G01 X56.4900 Y-280.4900 Z-1.0000
G01 X56.4900 Y-287.4900 Z-1.0000
G01 X56.4900 Y-294.4900 Z-1.0000
G01 X56.4900 Y-301.4900 Z-1.0000
G01 X56.4900 Y-308.4900 Z-1.0000
G01 X56.4900 Y-315.4900 Z-1.0000
G01 X56.4900 Y-322.4900 Z-1.0000
G01 X56.4900 Y-329.4900 Z-1.0000
G01 X56.4900 Y-336.4900 Z-1.0000
G01 X56.4900 Y-343.4900 Z-1.0000
G01 X56.4900 Y-350.4900 Z-1.0000
G01 X56.4900 Y-357.4900 Z-1.0000
G01 X56.4900 Y-364.4900 Z-1.0000
G01 X56.4900 Y-371.4900 Z-1.0000
G01 X56.4900 Y-378.4900 Z-1.0000
G01 X56.4900 Y-385.4900 Z-1.0000
G01 X56.4900 Y-392.4900 Z-1.0000
G01 X56.4900 Y-399.4900 Z-1.0000
G01 X56.4900 Y-406.4900 Z-1.0000
G01 X56.4900 Y-413.4900 Z-1.0000
G01 X56.4900 Y-420.4900 Z-0.8700
G01 Z1 F3000
G01 X63.4900 Y-364.4900 Z1 F3000
G01 Z-0.5200 F1200
G01 X63.4900 Y-371.4900 Z-1.0000
G01 X63.4900 Y-378.4900 Z-1.0000
G01 X63.4900 Y-385.4900 Z-1.0000
G01 X63.4900 Y-392.4900 Z-1.0000
G01 X63.4900 Y-399.4900 Z-1.0000
G01 X63.4900 Y-406.4900 Z-1.0000
G01 X63.4900 Y-413.4900 Z-0.1600
G01 Z1 F3000
G01 X70.4900 Y-364.4900 Z1 F3000
G01 Z-0.9800 F1200
G01 X70.4900 Y-371.4900 Z-1.0000
G01 X70.4900 Y-378.4900 Z-1.0000
G01 X70.4900 Y-385.4900 Z-1.0000
G01 X70.4900 Y-392.4900 Z-1.0000
G01 X70.4900 Y-399.4900 Z-0.9700
G01 Z1 F3000
G01 X77.4900 Y-357.4900 Z1 F3000
G01 Z-1.0000 F1200
G01 X77.4900 Y-364.4900 Z-1.0000
G01 X77.4900 Y-371.4900 Z-1.0000
G01 X77.4900 Y-378.4900 Z-1.0000
G01 X77.4900 Y-385.4900 Z-1.0000
G01 X77.4900 Y-392.4900 Z-0.1600
G01 Z1 F3000
G01 X84.4900 Y-350.4900 Z1 F3000
G01 Z-1.0000 F1200
G01 X84.4900 Y-357.4900 Z-1.0000
G01 X84.4900 Y-364.4900 Z-1.0000
G01 X84.4900 Y-371.4900 Z-1.0000
G01 X84.4900 Y-378.4900 Z-0.9800
G01 Z1 F3000
G01 X91.4900 Y-336.4900 Z1 F3000
G01 Z-0.7400 F1200
G01 X91.4900 Y-343.4900 Z-1.0000
G01 X91.4900 Y-350.4900 Z-1.0000
G01 X91.4900 Y-357.4900 Z-1.0000
G01 X91.4900 Y-364.4900 Z-1.0000
G01 X91.4900 Y-371.4900 Z-1.0000
G01 Z1 F3000
G01 X98.4900 Y-329.4900 Z1 F3000
G01 Z-0.7900 F1200
G01 X98.4900 Y-336.4900 Z-1.0000
G01 X98.4900 Y-343.4900 Z-1.0000
G01 X98.4900 Y-350.4900 Z-1.0000
G01 X98.4900 Y-357.4900 Z-1.0000
G01 X98.4900 Y-364.4900 Z-0.9800
G01 Z1 F3000
G01 X105.4900 Y-322.4900 Z1 F3000
G01 Z-1.0000 F1200
G01 X105.4900 Y-329.4900 Z-1.0000
G01 X105.4900 Y-336.4900 Z-1.0000
G01 X105.4900 Y-343.4900 Z-1.0000
G01 X105.4900 Y-350.4900 Z-1.0000
G01 X105.4900 Y-357.4900 Z-0.6900
G01 Z1 F3000
G01 X112.4900 Y-308.4900 Z1 F3000
G01 Z-0.7600 F1200
G01 X112.4900 Y-315.4900 Z-1.0000
G01 X112.4900 Y-322.4900 Z-1.0000
G01 X112.4900 Y-329.4900 Z-1.0000
G01 X112.4900 Y-336.4900 Z-1.0000
G01 X112.4900 Y-343.4900 Z-1.0000
G01 X112.4900 Y-350.4900 Z-0.7100
G01 Z1 F3000
G01 X119.4900 Y-301.4900 Z1 F3000
G01 Z-0.7900 F1200
G01 X119.4900 Y-308.4900 Z-1.0000
G01 X119.4900 Y-315.4900 Z-1.0000
G01 X119.4900 Y-322.4900 Z-1.0000
G01 X119.4900 Y-329.4900 Z-1.0000
G01 X119.4900 Y-336.4900 Z-0.9300
G01 Z1 F3000
G01 X126.4900 Y-294.4900 Z1 F3000
G01 Z-1.0000 F1200
G01 X126.4900 Y-301.4900 Z-1.0000
G01 X126.4900 Y-308.4900 Z-1.0000
G01 X126.4900 Y-315.4900 Z-1.0000
G01 X126.4900 Y-322.4900 Z-1.0000
G01 X126.4900 Y-329.4900 Z-0.7900
G01 Z1 F3000
G01 X133.4900 Y-287.4900 Z1 F3000
G01 Z-1.0000 F1200
G01 X133.4900 Y-294.4900 Z-1.0000
G01 X133.4900 Y-301.4900 Z-1.0000
G01 X133.4900 Y-308.4900 Z-1.0000
G01 X133.4900 Y-315.4900 Z-1.0000
G01 X133.4900 Y-322.4900 Z-0.1700
G01 Z1 F3000
G01 X140.4900 Y-273.4900 Z1 F3000
G01 Z-0.9700 F1200
G01 X140.4900 Y-280.4900 Z-1.0000
G01 X140.4900 Y-287.4900 Z-1.0000
G01 X140.4900 Y-294.4900 Z-1.0000
G01 X140.4900 Y-301.4900 Z-1.0000
G01 X140.4900 Y-308.4900 Z-1.0000
G01 Z1 F3000
G01 X147.4900 Y-266.4900 Z1 F3000
G01 Z-0.9700 F1200
G01 X147.4900 Y-273.4900 Z-1.0000
G01 X147.4900 Y-280.4900 Z-1.0000
G01 X147.4900 Y-287.4900 Z-1.0000
G01 X147.4900 Y-294.4900 Z-1.0000
G01 X147.4900 Y-301.4900 Z-1.0000
G01 Z1 F3000
G01 X154.4900 Y-259.4900 Z1 F3000
G01 Z-0.9800 F1200
G01 X154.4900 Y-266.4900 Z-1.0000
G01 X154.4900 Y-273.4900 Z-1.0000
G01 X154.4900 Y-280.4900 Z-1.0000
G01 X154.4900 Y-287.4900 Z-1.0000
G01 X154.4900 Y-294.4900 Z-0.9700
G01 Z1 F3000
G01 X161.4900 Y-252.4900 Z1 F3000
G01 Z-1.0000 F1200
G01 X161.4900 Y-259.4900 Z-1.0000
G01 X161.4900 Y-266.4900 Z-1.0000
G01 X161.4900 Y-273.4900 Z-1.0000
G01 X161.4900 Y-280.4900 Z-1.0000
G01 X161.4900 Y-287.4900 Z-0.1300
G01 Z1 F3000
G01 X168.4900 Y-245.4900 Z1 F3000
G01 Z-0.9600 F1200
G01 X175.4900 Y-245.4900 Z-1.0000
G01 X182.4900 Y-245.4900 Z-1.0000
G01 X189.4900 Y-245.4900 Z-0.8800
G01 Z1 F3000
G01 X168.4900 Y-252.4900 Z1 F3000
G01 Z-1.0000 F1200
G01 X175.4900 Y-252.4900 Z-1.0000
G01 X182.4900 Y-252.4900 Z-1.0000
G01 X189.4900 Y-252.4900 Z-1.0000
G01 X196.4900 Y-252.4900 Z-0.9800
G01 Z1 F3000
G01 X168.4900 Y-259.4900 Z1 F3000
G01 Z-1.0000 F1200
G01 X175.4900 Y-259.4900 Z-1.0000
G01 X182.4900 Y-259.4900 Z-1.0000
G01 X189.4900 Y-259.4900 Z-1.0000
G01 X196.4900 Y-259.4900 Z-1.0000
G01 X203.4900 Y-259.4900 Z-0.7700
G01 Z1 F3000
G01 X168.4900 Y-266.4900 Z1 F3000
G01 Z-1.0000 F1200
G01 X168.4900 Y-273.4900 Z-1.0000
G01 X168.4900 Y-280.4900 Z-0.6800
G01 X175.4900 Y-266.4900 Z-1.0000
G01 X175.4900 Y-273.4900 Z-0.1400
G01 X182.4900 Y-266.4900 Z-1.0000
G01 X182.4900 Y-273.4900 Z-0.1000
G01 X189.4900 Y-266.4900 Z-1.0000
G01 X189.4900 Y-273.4900 Z-1.0000
G01 X189.4900 Y-280.4900 Z-0.9500
G01 X189.4900 Y-287.4900 Z-0.1400
G01 Z1 F3000
G01 X196.4900 Y-266.4900 Z1 F3000
G01 Z-1.0000 F1200
G01 X196.4900 Y-273.4900 Z-1.0000
G01 X196.4900 Y-280.4900 Z-1.0000
G01 X196.4900 Y-287.4900 Z-1.0000
G01 X196.4900 Y-294.4900 Z-1.0000
G01 X196.4900 Y-301.4900 Z-0.5700
G01 Z1 F3000
G01 X203.4900 Y-266.4900 Z1 F3000
G01 Z-1.0000 F1200
G01 X203.4900 Y-273.4900 Z-1.0000
G01 X203.4900 Y-280.4900 Z-1.0000
G01 X203.4900 Y-287.4900 Z-1.0000
G01 X203.4900 Y-294.4900 Z-1.0000
G01 X203.4900 Y-301.4900 Z-1.0000
G01 X203.4900 Y-308.4900 Z-1.0000
G01 X203.4900 Y-315.4900 Z-0.9600
G01 Z1 F3000
G01 X210.4900 Y-273.4900 Z1 F3000
G01 Z-0.6400 F1200
G01 X210.4900 Y-280.4900 Z-1.0000
G01 X210.4900 Y-287.4900 Z-1.0000
G01 X210.4900 Y-294.4900 Z-1.0000
G01 X210.4900 Y-301.4900 Z-1.0000
G01 X210.4900 Y-308.4900 Z-1.0000
G01 X210.4900 Y-315.4900 Z-1.0000
G01 X210.4900 Y-322.4900 Z-1.0000
G01 X210.4900 Y-329.4900 Z-0.8100
G01 Z1 F3000
G01 X217.4900 Y-287.4900 Z1 F3000
G01 Z-0.1900 F1200
G01 X217.4900 Y-294.4900 Z-0.9700
G01 X217.4900 Y-301.4900 Z-1.0000
G01 X217.4900 Y-308.4900 Z-1.0000
G01 X217.4900 Y-315.4900 Z-1.0000
G01 X217.4900 Y-322.4900 Z-1.0000
G01 X217.4900 Y-329.4900 Z-1.0000
G01 X217.4900 Y-336.4900 Z-1.0000
G01 X217.4900 Y-343.4900 Z-0.9800
G01 X217.4900 Y-350.4900 Z-0.2900
G01 Z1 F3000
G01 X224.4900 Y-308.4900 Z1 F3000
G01 Z-0.9800 F1200
G01 X224.4900 Y-315.4900 Z-1.0000
G01 X224.4900 Y-322.4900 Z-1.0000
G01 X224.4900 Y-329.4900 Z-1.0000
G01 X224.4900 Y-336.4900 Z-1.0000
G01 X224.4900 Y-343.4900 Z-1.0000
G01 X224.4900 Y-350.4900 Z-1.0000
G01 X224.4900 Y-357.4900 Z-1.0000
G01 X224.4900 Y-364.4900 Z-0.8600
G01 X224.4900 Y-371.4900 Z-0.0700
G01 Z1 F3000
G01 X231.4900 Y-322.4900 Z1 F3000
G01 Z-0.8900 F1200
G01 X231.4900 Y-329.4900 Z-1.0000
G01 X231.4900 Y-336.4900 Z-1.0000
G01 X231.4900 Y-343.4900 Z-1.0000
G01 X231.4900 Y-350.4900 Z-1.0000
G01 X231.4900 Y-357.4900 Z-1.0000
G01 X231.4900 Y-364.4900 Z-1.0000
G01 X231.4900 Y-371.4900 Z-1.0000
G01 X231.4900 Y-378.4900 Z-1.0000
G01 X231.4900 Y-385.4900 Z-0.3200
G01 Z1 F3000
G01 X238.4900 Y-336.4900 Z1 F3000
G01 Z-0.5100 F1200
G01 X238.4900 Y-343.4900 Z-1.0000
G01 X238.4900 Y-350.4900 Z-1.0000
G01 X238.4900 Y-357.4900 Z-1.0000
G01 X238.4900 Y-364.4900 Z-1.0000
G01 X238.4900 Y-371.4900 Z-1.0000
G01 X238.4900 Y-378.4900 Z-1.0000
G01 X238.4900 Y-385.4900 Z-1.0000
G01 X238.4900 Y-392.4900 Z-0.9700
G01 Z1 F3000
G01 X245.4900 Y-357.4900 Z1 F3000
G01 Z-0.7300 F1200
G01 X245.4900 Y-364.4900 Z-1.0000
G01 X245.4900 Y-371.4900 Z-1.0000
G01 X245.4900 Y-378.4900 Z-1.0000
G01 X245.4900 Y-385.4900 Z-1.0000
G01 X245.4900 Y-392.4900 Z-1.0000
G01 X245.4900 Y-399.4900 Z-1.0000
G01 X245.4900 Y-406.4900 Z-0.8600
G01 Z1 F3000
G01 X252.4900 Y-371.4900 Z1 F3000
G01 Z-0.4300 F1200
G01 X252.4900 Y-378.4900 Z-1.0000
G01 X252.4900 Y-385.4900 Z-1.0000
G01 X252.4900 Y-392.4900 Z-1.0000
G01 X252.4900 Y-399.4900 Z-1.0000
G01 X252.4900 Y-406.4900 Z-1.0000
G01 X252.4900 Y-413.4900 Z-1.0000
G01 X252.4900 Y-420.4900 Z-0.8900
G01 Z1 F3000
G01 X259.4900 Y-385.4900 Z1 F3000
G01 Z-0.6300 F1200
G01 X259.4900 Y-392.4900 Z-1.0000
G01 X259.4900 Y-399.4900 Z-1.0000
G01 X259.4900 Y-406.4900 Z-1.0000
G01 X259.4900 Y-413.4900 Z-1.0000
G01 X259.4900 Y-420.4900 Z-1.0000
G01 X259.4900 Y-427.4900 Z-1.0000
G01 X259.4900 Y-434.4900 Z-0.8100
G01 Z1 F3000
G01 X266.4900 Y-399.4900 Z1 F3000
G01 Z-0.8600 F1200
G01 X266.4900 Y-406.4900 Z-1.0000
G01 X266.4900 Y-413.4900 Z-1.0000
G01 X266.4900 Y-420.4900 Z-1.0000
G01 X266.4900 Y-427.4900 Z-1.0000
G01 X266.4900 Y-434.4900 Z-1.0000
G01 X266.4900 Y-441.4900 Z-1.0000
G01 X266.4900 Y-448.4900 Z-0.8400
G01 Z1 F3000
G01 X273.4900 Y-413.4900 Z1 F3000
G01 Z-0.8100 F1200
G01 X273.4900 Y-420.4900 Z-1.0000
G01 X273.4900 Y-427.4900 Z-1.0000
G01 X273.4900 Y-434.4900 Z-1.0000
G01 X273.4900 Y-441.4900 Z-1.0000
G01 X273.4900 Y-448.4900 Z-1.0000
G01 X273.4900 Y-455.4900 Z-1.0000
G01 X273.4900 Y-462.4900 Z-0.6600
G01 Z1 F3000
G01 X280.4900 Y-427.4900 Z1 F3000
G01 Z-0.8900 F1200
G01 X280.4900 Y-434.4900 Z-1.0000
G01 X280.4900 Y-441.4900 Z-1.0000
G01 X280.4900 Y-448.4900 Z-1.0000
G01 X280.4900 Y-455.4900 Z-1.0000
G01 X280.4900 Y-462.4900 Z-1.0000
G01 X280.4900 Y-469.4900 Z-0.6900
G01 Z1 F3000
G01 X287.4900 Y-441.4900 Z1 F3000
G01 Z-0.9300 F1200
G01 X287.4900 Y-448.4900 Z-1.0000
G01 X287.4900 Y-455.4900 Z-1.0000
G01 X287.4900 Y-462.4900 Z-1.0000
G01 X287.4900 Y-469.4900 Z-1.0000
G01 X287.4900 Y-476.4900 Z-0.9800
G01 Z1 F3000
G01 X294.4900 Y-448.4900 Z1 F3000
G01 Z-0.7500 F1200
G01 X294.4900 Y-455.4900 Z-1.0000
G01 X294.4900 Y-462.4900 Z-1.0000
G01 X294.4900 Y-469.4900 Z-1.0000
G01 X294.4900 Y-476.4900 Z-1.0000
G01 X294.4900 Y-483.4900 Z-1.0000
G01 X294.4900 Y-490.4900 Z-0.0800
G01 Z1 F3000
G01 X301.4900 Y-462.4900 Z1 F3000
G01 Z-1.0000 F1200
G01 X301.4900 Y-469.4900 Z-1.0000
G01 X301.4900 Y-476.4900 Z-1.0000
G01 X301.4900 Y-483.4900 Z-1.0000
G01 X301.4900 Y-490.4900 Z-1.0000
G01 X301.4900 Y-497.4900 Z-0.7200
G01 Z1 F3000
G01 X308.4900 Y-469.4900 Z1 F3000
G01 Z-0.9800 F1200
G01 X308.4900 Y-476.4900 Z-1.0000
G01 X308.4900 Y-483.4900 Z-1.0000
G01 X308.4900 Y-490.4900 Z-1.0000
G01 X308.4900 Y-497.4900 Z-1.0000
G01 X308.4900 Y-504.4900 Z-0.5000
G01 Z1 F3000
G01 X315.4900 Y-476.4900 Z1 F3000
G01 Z-0.7700 F1200
G01 X315.4900 Y-483.4900 Z-1.0000
G01 X315.4900 Y-490.4900 Z-1.0000
G01 X315.4900 Y-497.4900 Z-1.0000
G01 X315.4900 Y-504.4900 Z-1.0000
G01 X315.4900 Y-511.4900 Z-0.7200
G01 Z1 F3000
G01 X322.4900 Y-483.4900 Z1 F3000
G01 Z-0.5000 F1200
G01 X322.4900 Y-490.4900 Z-1.0000
G01 X322.4900 Y-497.4900 Z-1.0000
G01 X322.4900 Y-504.4900 Z-1.0000
G01 X322.4900 Y-511.4900 Z-1.0000
G01 X322.4900 Y-518.4900 Z-0.6100
G01 Z1 F3000
G01 X329.4900 Y-490.4900 Z1 F3000
G01 Z-0.7200 F1200
G01 X329.4900 Y-497.4900 Z-1.0000
G01 X329.4900 Y-504.4900 Z-1.0000
G01 X329.4900 Y-511.4900 Z-1.0000
G01 X329.4900 Y-518.4900 Z-1.0000
G01 Z1 F3000
G01 X336.4900 Y-497.4900 Z1 F3000
G01 Z-0.7900 F1200
G01 X336.4900 Y-504.4900 Z-1.0000
G01 X336.4900 Y-511.4900 Z-1.0000
G01 X336.4900 Y-518.4900 Z-1.0000
G01 X336.4900 Y-525.4900 Z-0.6300
G01 Z1 F3000
G01 X343.4900 Y-504.4900 Z1 F3000
G01 Z-1.0000 F1200
G01 X343.4900 Y-511.4900 Z-1.0000
G01 X343.4900 Y-518.4900 Z-1.0000
G01 X343.4900 Y-525.4900 Z-1.0000
G01 Z1 F3000
G01 X364.4900 Y-525.4900 Z1 F3000
G01 Z-0.6400 F1200
G01 X357.4900 Y-525.4900 Z-1.0000
G01 X350.4900 Y-525.4900 Z-1.0000
G01 Z1 F3000
G01 X350.4900 Y-504.4900 Z1 F3000
G01 Z-1.0000 F1200
G01 X350.4900 Y-511.4900 Z-1.0000
G01 X350.4900 Y-518.4900 Z-1.0000
G01 X357.4900 Y-504.4900 Z-1.0000
G01 X357.4900 Y-511.4900 Z-1.0000
G01 X357.4900 Y-518.4900 Z-1.0000
G01 Z1 F3000
G01 X378.4900 Y-518.4900 Z1 F3000
G01 Z-0.1400 F1200
G01 X371.4900 Y-518.4900 Z-1.0000
G01 X364.4900 Y-518.4900 Z-1.0000
G01 Z1 F3000
G01 X364.4900 Y-497.4900 Z1 F3000
G01 Z-0.8500 F1200
G01 X364.4900 Y-504.4900 Z-1.0000
G01 X364.4900 Y-511.4900 Z-1.0000
G01 Z1 F3000
G01 X385.4900 Y-511.4900 Z1 F3000
G01 Z-0.6800 F1200
G01 X378.4900 Y-511.4900 Z-1.0000
G01 X371.4900 Y-511.4900 Z-1.0000
G01 X385.4900 Y-504.4900 Z-1.0000
G01 X378.4900 Y-504.4900 Z-1.0000
G01 X371.4900 Y-504.4900 Z-1.0000
G01 X371.4900 Y-490.4900 Z-0.9700
G01 X371.4900 Y-497.4900 Z-1.0000
G01 Z1 F3000
G01 X392.4900 Y-497.4900 Z1 F3000
G01 Z-0.9800 F1200
G01 X385.4900 Y-497.4900 Z-1.0000
G01 X378.4900 Y-497.4900 Z-1.0000
G01 Z1 F3000
G01 X378.4900 Y-476.4900 Z1 F3000
G01 Z-0.0900 F1200
G01 X378.4900 Y-483.4900 Z-1.0000
G01 X378.4900 Y-490.4900 Z-1.0000
G01 Z1 F3000
G01 X399.4900 Y-490.4900 Z1 F3000
G01 Z-0.7700 F1200
G01 X392.4900 Y-490.4900 Z-1.0000
G01 X385.4900 Y-490.4900 Z-1.0000
G01 X399.4900 Y-483.4900 Z-1.0000
G01 X392.4900 Y-483.4900 Z-1.0000
G01 X385.4900 Y-483.4900 Z-1.0000
G01 X385.4900 Y-469.4900 Z-0.8600
G01 X385.4900 Y-476.4900 Z-1.0000
G01 Z1 F3000
G01 X406.4900 Y-476.4900 Z1 F3000
G01 Z-0.8600 F1200
G01 X399.4900 Y-476.4900 Z-1.0000
G01 X392.4900 Y-476.4900 Z-1.0000
G01 X406.4900 Y-469.4900 Z-1.0000
G01 X399.4900 Y-469.4900 Z-1.0000
G01 X392.4900 Y-469.4900 Z-1.0000
G01 X392.4900 Y-455.4900 Z-0.6300
G01 X392.4900 Y-462.4900 Z-1.0000
G01 Z1 F3000
G01 X413.4900 Y-462.4900 Z1 F3000
G01 Z-0.9700 F1200
G01 X406.4900 Y-462.4900 Z-1.0000
G01 X399.4900 Y-462.4900 Z-1.0000
G01 Z1 F3000
G01 X399.4900 Y-441.4900 Z1 F3000
G01 Z-0.4300 F1200
G01 X399.4900 Y-448.4900 Z-1.0000
G01 X399.4900 Y-455.4900 Z-1.0000
G01 Z1 F3000
G01 X420.4900 Y-455.4900 Z1 F3000
G01 Z-0.3200 F1200
G01 X413.4900 Y-455.4900 Z-1.0000
G01 X406.4900 Y-455.4900 Z-1.0000
G01 X420.4900 Y-448.4900 Z-1.0000
G01 X413.4900 Y-448.4900 Z-1.0000
G01 X406.4900 Y-448.4900 Z-1.0000
G01 Z1 F3000
G01 X406.4900 Y-427.4900 Z1 F3000
G01 Z-0.1400 F1200
G01 X406.4900 Y-434.4900 Z-1.0000
G01 X406.4900 Y-441.4900 Z-1.0000
G01 Z1 F3000
G01 X427.4900 Y-441.4900 Z1 F3000
G01 Z-0.8100 F1200
G01 X420.4900 Y-441.4900 Z-1.0000
G01 X413.4900 Y-441.4900 Z-1.0000
G01 X427.4900 Y-434.4900 Z-1.0000
G01 X420.4900 Y-434.4900 Z-1.0000
G01 X413.4900 Y-434.4900 Z-1.0000
G01 X413.4900 Y-420.4900 Z-0.8200
G01 X413.4900 Y-427.4900 Z-1.0000
G01 Z1 F3000
G01 X434.4900 Y-427.4900 Z1 F3000
G01 Z-0.9700 F1200
G01 X427.4900 Y-427.4900 Z-1.0000
G01 X420.4900 Y-427.4900 Z-1.0000
G01 Z1 F3000
G01 X420.4900 Y-406.4900 Z1 F3000
G01 Z-0.1600 F1200
G01 X420.4900 Y-413.4900 Z-1.0000
G01 X420.4900 Y-420.4900 Z-1.0000
G01 Z1 F3000
G01 X441.4900 Y-420.4900 Z1 F3000
G01 Z-0.4600 F1200
G01 X434.4900 Y-420.4900 Z-1.0000
G01 X427.4900 Y-420.4900 Z-1.0000
G01 X441.4900 Y-413.4900 Z-1.0000
G01 X434.4900 Y-413.4900 Z-1.0000
G01 X427.4900 Y-413.4900 Z-1.0000
G01 X427.4900 Y-399.4900 Z-0.9700
G01 X427.4900 Y-406.4900 Z-1.0000
G01 Z1 F3000
G01 X448.4900 Y-406.4900 Z1 F3000
G01 Z-0.9700 F1200
G01 X441.4900 Y-406.4900 Z-1.0000
G01 X434.4900 Y-406.4900 Z-1.0000
G01 X448.4900 Y-399.4900 Z-1.0000
G01 X441.4900 Y-399.4900 Z-1.0000
G01 X434.4900 Y-399.4900 Z-1.0000
G01 X434.4900 Y-385.4900 Z-0.6400
G01 X434.4900 Y-392.4900 Z-1.0000
G01 Z1 F3000
G01 X455.4900 Y-392.4900 Z1 F3000
G01 Z-0.9800 F1200
G01 X448.4900 Y-392.4900 Z-1.0000
G01 X441.4900 Y-392.4900 Z-1.0000
G01 Z1 F3000
G01 X441.4900 Y-371.4900 Z1 F3000
G01 Z-0.6700 F1200
G01 X441.4900 Y-378.4900 Z-1.0000
G01 X441.4900 Y-385.4900 Z-1.0000
G01 Z1 F3000
G01 X462.4900 Y-385.4900 Z1 F3000
G01 Z-0.7100 F1200
G01 X455.4900 Y-385.4900 Z-1.0000
G01 X448.4900 Y-385.4900 Z-1.0000
G01 X462.4900 Y-378.4900 Z-1.0000
G01 X455.4900 Y-378.4900 Z-1.0000
G01 X448.4900 Y-378.4900 Z-1.0000
G01 X448.4900 Y-364.4900 Z-0.9000
G01 X448.4900 Y-371.4900 Z-1.0000
G01 Z1 F3000
G01 X469.4900 Y-371.4900 Z1 F3000
G01 Z-0.7600 F1200
G01 X462.4900 Y-371.4900 Z-1.0000
G01 X455.4900 Y-371.4900 Z-1.0000
G01 Z1 F3000
G01 X455.4900 Y-350.4900 Z1 F3000
G01 Z-0.6000 F1200
G01 X455.4900 Y-357.4900 Z-1.0000
G01 X455.4900 Y-364.4900 Z-1.0000
G01 Z1 F3000
G01 X476.4900 Y-364.4900 Z1 F3000
G01 Z-0.0800 F1200
G01 X469.4900 Y-364.4900 Z-1.0000
G01 X462.4900 Y-364.4900 Z-1.0000
G01 X476.4900 Y-357.4900 Z-1.0000
G01 X469.4900 Y-357.4900 Z-1.0000
G01 X462.4900 Y-357.4900 Z-1.0000
G01 X462.4900 Y-343.4900 Z-1.0000
G01 X462.4900 Y-350.4900 Z-1.0000
G01 Z1 F3000
G01 X483.4900 Y-350.4900 Z1 F3000
G01 Z-0.7100 F1200
G01 X476.4900 Y-350.4900 Z-1.0000
G01 X469.4900 Y-350.4900 Z-1.0000
G01 Z1 F3000
G01 X469.4900 Y-329.4900 Z1 F3000
G01 Z-0.5000 F1200
G01 X469.4900 Y-336.4900 Z-1.0000
G01 X469.4900 Y-343.4900 Z-1.0000
G01 Z1 F3000
G01 X490.4900 Y-343.4900 Z1 F3000
G01 Z-0.1400 F1200
G01 X483.4900 Y-343.4900 Z-1.0000
G01 X476.4900 Y-343.4900 Z-1.0000
G01 X490.4900 Y-336.4900 Z-1.0000
G01 X483.4900 Y-336.4900 Z-1.0000
G01 X476.4900 Y-336.4900 Z-1.0000
G01 X476.4900 Y-322.4900 Z-0.9800
G01 X476.4900 Y-329.4900 Z-1.0000
G01 Z1 F3000
G01 X497.4900 Y-329.4900 Z1 F3000
G01 Z-0.9700 F1200
G01 X490.4900 Y-329.4900 Z-1.0000
G01 X483.4900 Y-329.4900 Z-1.0000
G01 Z1 F3000
G01 X483.4900 Y-308.4900 Z1 F3000
G01 Z-0.3400 F1200
G01 X483.4900 Y-315.4900 Z-1.0000
G01 X483.4900 Y-322.4900 Z-1.0000
G01 Z1 F3000
G01 X504.4900 Y-322.4900 Z1 F3000
G01 Z-0.3400 F1200
G01 X497.4900 Y-322.4900 Z-1.0000
G01 X490.4900 Y-322.4900 Z-1.0000
G01 X504.4900 Y-315.4900 Z-1.0000
G01 X497.4900 Y-315.4900 Z-1.0000
G01 X490.4900 Y-315.4900 Z-1.0000
G01 X490.4900 Y-301.4900 Z-0.9700
G01 X490.4900 Y-308.4900 Z-1.0000
G01 Z1 F3000
G01 X511.4900 Y-308.4900 Z1 F3000
G01 Z-0.9700 F1200
G01 X504.4900 Y-308.4900 Z-1.0000
G01 X497.4900 Y-308.4900 Z-1.0000
G01 Z1 F3000
G01 X497.4900 Y-287.4900 Z1 F3000
G01 Z-0.7300 F1200
G01 X497.4900 Y-294.4900 Z-1.0000
G01 X497.4900 Y-301.4900 Z-1.0000
G01 Z1 F3000
G01 X518.4900 Y-301.4900 Z1 F3000
G01 Z-0.7400 F1200
G01 X511.4900 Y-301.4900 Z-1.0000
G01 X504.4900 Y-301.4900 Z-1.0000
G01 X518.4900 Y-294.4900 Z-1.0000
G01 X511.4900 Y-294.4900 Z-1.0000
G01 X504.4900 Y-294.4900 Z-1.0000
G01 X504.4900 Y-280.4900 Z-0.7500
G01 X504.4900 Y-287.4900 Z-1.0000
G01 Z1 F3000
G01 X525.4900 Y-287.4900 Z1 F3000
G01 Z-1.0000 F1200
G01 X518.4900 Y-287.4900 Z-1.0000
G01 X511.4900 Y-287.4900 Z-1.0000
G01 Z1 F3000
G01 X511.4900 Y-266.4900 Z1 F3000
G01 Z-0.6100 F1200
G01 X511.4900 Y-273.4900 Z-1.0000
G01 X511.4900 Y-280.4900 Z-1.0000
G01 Z1 F3000
G01 X532.4900 Y-280.4900 Z1 F3000
G01 Z-0.9900 F1200
G01 X525.4900 Y-280.4900 Z-1.0000
G01 X518.4900 Y-280.4900 Z-1.0000
G01 Z1 F3000
G01 X518.4900 Y-259.4900 Z1 F3000
G01 Z-0.7800 F1200
G01 X525.4900 Y-259.4900 Z-1.0000
G01 X532.4900 Y-259.4900 Z-1.0000
G01 X539.4900 Y-259.4900 Z-1.0000
G01 X539.4900 Y-273.4900 Z-1.0000
G01 X532.4900 Y-273.4900 Z-1.0000
G01 X525.4900 Y-273.4900 Z-1.0000
G01 X518.4900 Y-273.4900 Z-1.0000
G01 X518.4900 Y-266.4900 Z-1.0000
G01 X525.4900 Y-266.4900 Z-1.0000
G01 X532.4900 Y-266.4900 Z-1.0000
G01 X539.4900 Y-266.4900 Z-1.0000
G01 X539.4900 Y-266.4900 Z1; With new deep step
G01 Z1 ;X0 Y0 Z1 Line Init
G01 X42.4900 Y-238.4900 Z1 ;With Z max 
G01 X42.4900 Y-238.4900 F3000
G01 X42.4900 Y-238.4900 Z-2.0000
G01 X49.4900 Y-238.4900 Z-2.0000
G01 X56.4900 Y-238.4900 Z-2.0000
G01 X42.4900 Y-245.4900 Z-2.0000
G01 X49.4900 Y-245.4900 Z-2.0000
G01 X56.4900 Y-245.4900 Z-2.0000
G01 X42.4900 Y-252.4900 Z-2.0000
G01 X42.4900 Y-259.4900 Z-2.0000
G01 X42.4900 Y-266.4900 Z-2.0000
G01 X42.4900 Y-273.4900 Z-2.0000
G01 X42.4900 Y-280.4900 Z-2.0000
G01 X42.4900 Y-287.4900 Z-2.0000
G01 X42.4900 Y-294.4900 Z-2.0000
G01 X42.4900 Y-301.4900 Z-2.0000
G01 X42.4900 Y-308.4900 Z-2.0000
G01 X42.4900 Y-315.4900 Z-2.0000
G01 X42.4900 Y-322.4900 Z-2.0000
G01 X42.4900 Y-329.4900 Z-2.0000
G01 X42.4900 Y-336.4900 Z-2.0000
G01 X42.4900 Y-343.4900 Z-2.0000
G01 X42.4900 Y-350.4900 Z-2.0000
G01 X42.4900 Y-357.4900 Z-2.0000
G01 X42.4900 Y-364.4900 Z-2.0000
G01 X42.4900 Y-371.4900 Z-2.0000
G01 X42.4900 Y-378.4900 Z-2.0000
G01 X42.4900 Y-385.4900 Z-2.0000
G01 X42.4900 Y-392.4900 Z-2.0000
G01 X42.4900 Y-399.4900 Z-2.0000
G01 X42.4900 Y-406.4900 Z-2.0000
G01 X42.4900 Y-413.4900 Z-2.0000
G01 X42.4900 Y-420.4900 Z-1.7400
G01 Z1 F3000
G01 X49.4900 Y-252.4900 Z1 F3000
G01 Z-2.0000 F1200
G01 X49.4900 Y-259.4900 Z-2.0000
G01 X49.4900 Y-266.4900 Z-2.0000
G01 X49.4900 Y-273.4900 Z-2.0000
G01 X49.4900 Y-280.4900 Z-2.0000
G01 X49.4900 Y-287.4900 Z-2.0000
G01 X49.4900 Y-294.4900 Z-2.0000
G01 X49.4900 Y-301.4900 Z-2.0000
G01 X49.4900 Y-308.4900 Z-2.0000
G01 X49.4900 Y-315.4900 Z-2.0000
G01 X49.4900 Y-322.4900 Z-2.0000
G01 X49.4900 Y-329.4900 Z-2.0000
G01 X49.4900 Y-336.4900 Z-2.0000
G01 X49.4900 Y-343.4900 Z-2.0000
G01 X49.4900 Y-350.4900 Z-2.0000
G01 X49.4900 Y-357.4900 Z-2.0000
G01 X49.4900 Y-364.4900 Z-2.0000
G01 X49.4900 Y-371.4900 Z-2.0000
G01 X49.4900 Y-378.4900 Z-2.0000
G01 X49.4900 Y-385.4900 Z-2.0000
G01 X49.4900 Y-392.4900 Z-2.0000
G01 X49.4900 Y-399.4900 Z-2.0000
G01 X49.4900 Y-406.4900 Z-2.0000
G01 X49.4900 Y-413.4900 Z-2.0000
G01 X49.4900 Y-420.4900 Z-2.0000
G01 Z1 F3000
G01 X56.4900 Y-252.4900 Z1 F3000
G01 Z-2.0000 F1200
G01 X56.4900 Y-259.4900 Z-2.0000
G01 X56.4900 Y-266.4900 Z-2.0000
G01 X56.4900 Y-273.4900 Z-2.0000
G01 X56.4900 Y-280.4900 Z-2.0000
G01 X56.4900 Y-287.4900 Z-2.0000
G01 X56.4900 Y-294.4900 Z-2.0000
G01 X56.4900 Y-301.4900 Z-2.0000
G01 X56.4900 Y-308.4900 Z-2.0000
G01 X56.4900 Y-315.4900 Z-2.0000
G01 X56.4900 Y-322.4900 Z-2.0000
G01 X56.4900 Y-329.4900 Z-2.0000
G01 X56.4900 Y-336.4900 Z-2.0000
G01 X56.4900 Y-343.4900 Z-2.0000
G01 X56.4900 Y-350.4900 Z-2.0000
G01 X56.4900 Y-357.4900 Z-2.0000
G01 X56.4900 Y-364.4900 Z-2.0000
G01 X56.4900 Y-371.4900 Z-2.0000
G01 X56.4900 Y-378.4900 Z-2.0000
G01 X56.4900 Y-385.4900 Z-2.0000
G01 X56.4900 Y-392.4900 Z-2.0000
G01 X56.4900 Y-399.4900 Z-2.0000
G01 X56.4900 Y-406.4900 Z-2.0000
G01 X56.4900 Y-413.4900 Z-2.0000
G01 X56.4900 Y-420.4900 Z-1.7400
G01 Z1 F3000
G01 X63.4900 Y-364.4900 Z1 F3000
G01 Z-1.0400 F1200
G01 X63.4900 Y-371.4900 Z-2.0000
G01 X63.4900 Y-378.4900 Z-2.0000
G01 X63.4900 Y-385.4900 Z-2.0000
G01 X63.4900 Y-392.4900 Z-2.0000
G01 X63.4900 Y-399.4900 Z-2.0000
G01 X63.4900 Y-406.4900 Z-2.0000
G01 X63.4900 Y-413.4900 Z-0.3200
G01 Z1 F3000
G01 X70.4900 Y-364.4900 Z1 F3000
G01 Z-1.9600 F1200
G01 X70.4900 Y-371.4900 Z-2.0000
G01 X70.4900 Y-378.4900 Z-2.0000
G01 X70.4900 Y-385.4900 Z-2.0000
G01 X70.4900 Y-392.4900 Z-2.0000
G01 X70.4900 Y-399.4900 Z-1.9400
G01 Z1 F3000
G01 X77.4900 Y-357.4900 Z1 F3000
G01 Z-2.0000 F1200
G01 X77.4900 Y-364.4900 Z-2.0000
G01 X77.4900 Y-371.4900 Z-2.0000
G01 X77.4900 Y-378.4900 Z-2.0000
G01 X77.4900 Y-385.4900 Z-2.0000
G01 X77.4900 Y-392.4900 Z-0.3200
G01 Z1 F3000
G01 X84.4900 Y-350.4900 Z1 F3000
G01 Z-2.0000 F1200
G01 X84.4900 Y-357.4900 Z-2.0000
G01 X84.4900 Y-364.4900 Z-2.0000
G01 X84.4900 Y-371.4900 Z-2.0000
G01 X84.4900 Y-378.4900 Z-1.9600
G01 Z1 F3000
G01 X91.4900 Y-336.4900 Z1 F3000
G01 Z-1.4800 F1200
G01 X91.4900 Y-343.4900 Z-2.0000
G01 X91.4900 Y-350.4900 Z-2.0000
G01 X91.4900 Y-357.4900 Z-2.0000
G01 X91.4900 Y-364.4900 Z-2.0000
G01 X91.4900 Y-371.4900 Z-2.0000
G01 Z1 F3000
G01 X98.4900 Y-329.4900 Z1 F3000
G01 Z-1.5800 F1200
G01 X98.4900 Y-336.4900 Z-2.0000
G01 X98.4900 Y-343.4900 Z-2.0000
G01 X98.4900 Y-350.4900 Z-2.0000
G01 X98.4900 Y-357.4900 Z-2.0000
G01 X98.4900 Y-364.4900 Z-1.9600
G01 Z1 F3000
G01 X105.4900 Y-322.4900 Z1 F3000
G01 Z-2.0000 F1200
G01 X105.4900 Y-329.4900 Z-2.0000
G01 X105.4900 Y-336.4900 Z-2.0000
G01 X105.4900 Y-343.4900 Z-2.0000
G01 X105.4900 Y-350.4900 Z-2.0000
G01 X105.4900 Y-357.4900 Z-1.3800
G01 Z1 F3000
G01 X112.4900 Y-308.4900 Z1 F3000
G01 Z-1.5200 F1200
G01 X112.4900 Y-315.4900 Z-2.0000
G01 X112.4900 Y-322.4900 Z-2.0000
G01 X112.4900 Y-329.4900 Z-2.0000
G01 X112.4900 Y-336.4900 Z-2.0000
G01 X112.4900 Y-343.4900 Z-2.0000
G01 X112.4900 Y-350.4900 Z-1.4200
G01 Z1 F3000
G01 X119.4900 Y-301.4900 Z1 F3000
G01 Z-1.5800 F1200
G01 X119.4900 Y-308.4900 Z-2.0000
G01 X119.4900 Y-315.4900 Z-2.0000
G01 X119.4900 Y-322.4900 Z-2.0000
G01 X119.4900 Y-329.4900 Z-2.0000
G01 X119.4900 Y-336.4900 Z-1.8600
G01 Z1 F3000
G01 X126.4900 Y-294.4900 Z1 F3000
G01 Z-2.0000 F1200
G01 X126.4900 Y-301.4900 Z-2.0000
G01 X126.4900 Y-308.4900 Z-2.0000
G01 X126.4900 Y-315.4900 Z-2.0000
G01 X126.4900 Y-322.4900 Z-2.0000
G01 X126.4900 Y-329.4900 Z-1.5800
G01 Z1 F3000
G01 X133.4900 Y-287.4900 Z1 F3000
G01 Z-2.0000 F1200
G01 X133.4900 Y-294.4900 Z-2.0000
G01 X133.4900 Y-301.4900 Z-2.0000
G01 X133.4900 Y-308.4900 Z-2.0000
G01 X133.4900 Y-315.4900 Z-2.0000
G01 X133.4900 Y-322.4900 Z-0.3400
G01 Z1 F3000
G01 X140.4900 Y-273.4900 Z1 F3000
G01 Z-1.9400 F1200
G01 X140.4900 Y-280.4900 Z-2.0000
G01 X140.4900 Y-287.4900 Z-2.0000
G01 X140.4900 Y-294.4900 Z-2.0000
G01 X140.4900 Y-301.4900 Z-2.0000
G01 X140.4900 Y-308.4900 Z-2.0000
G01 Z1 F3000
G01 X147.4900 Y-266.4900 Z1 F3000
G01 Z-1.9400 F1200
G01 X147.4900 Y-273.4900 Z-2.0000
G01 X147.4900 Y-280.4900 Z-2.0000
G01 X147.4900 Y-287.4900 Z-2.0000
G01 X147.4900 Y-294.4900 Z-2.0000
G01 X147.4900 Y-301.4900 Z-2.0000
G01 Z1 F3000
G01 X154.4900 Y-259.4900 Z1 F3000
G01 Z-1.9600 F1200
G01 X154.4900 Y-266.4900 Z-2.0000
G01 X154.4900 Y-273.4900 Z-2.0000
G01 X154.4900 Y-280.4900 Z-2.0000
G01 X154.4900 Y-287.4900 Z-2.0000
G01 X154.4900 Y-294.4900 Z-1.9400
G01 Z1 F3000
G01 X161.4900 Y-252.4900 Z1 F3000
G01 Z-2.0000 F1200
G01 X161.4900 Y-259.4900 Z-2.0000
G01 X161.4900 Y-266.4900 Z-2.0000
G01 X161.4900 Y-273.4900 Z-2.0000
G01 X161.4900 Y-280.4900 Z-2.0000
G01 X161.4900 Y-287.4900 Z-0.2600
G01 Z1 F3000
G01 X168.4900 Y-245.4900 Z1 F3000
G01 Z-1.9200 F1200
G01 X175.4900 Y-245.4900 Z-2.0000
G01 X182.4900 Y-245.4900 Z-2.0000
G01 X189.4900 Y-245.4900 Z-1.7600
G01 Z1 F3000
G01 X168.4900 Y-252.4900 Z1 F3000
G01 Z-2.0000 F1200
G01 X175.4900 Y-252.4900 Z-2.0000
G01 X182.4900 Y-252.4900 Z-2.0000
G01 X189.4900 Y-252.4900 Z-2.0000
G01 X196.4900 Y-252.4900 Z-1.9600
G01 Z1 F3000
G01 X168.4900 Y-259.4900 Z1 F3000
G01 Z-2.0000 F1200
G01 X175.4900 Y-259.4900 Z-2.0000
G01 X182.4900 Y-259.4900 Z-2.0000
G01 X189.4900 Y-259.4900 Z-2.0000
G01 X196.4900 Y-259.4900 Z-2.0000
G01 X203.4900 Y-259.4900 Z-1.5400
G01 Z1 F3000
G01 X168.4900 Y-266.4900 Z1 F3000
G01 Z-2.0000 F1200
G01 X168.4900 Y-273.4900 Z-2.0000
G01 X168.4900 Y-280.4900 Z-1.3600
G01 X175.4900 Y-266.4900 Z-2.0000
G01 X175.4900 Y-273.4900 Z-0.2800
G01 X182.4900 Y-266.4900 Z-2.0000
G01 X182.4900 Y-273.4900 Z-0.2000
G01 X189.4900 Y-266.4900 Z-2.0000
G01 X189.4900 Y-273.4900 Z-2.0000
G01 X189.4900 Y-280.4900 Z-1.9000
G01 X189.4900 Y-287.4900 Z-0.2800
G01 Z1 F3000
G01 X196.4900 Y-266.4900 Z1 F3000
G01 Z-2.0000 F1200
G01 X196.4900 Y-273.4900 Z-2.0000
G01 X196.4900 Y-280.4900 Z-2.0000
G01 X196.4900 Y-287.4900 Z-2.0000
G01 X196.4900 Y-294.4900 Z-2.0000
G01 X196.4900 Y-301.4900 Z-1.1400
G01 Z1 F3000
G01 X203.4900 Y-266.4900 Z1 F3000
G01 Z-2.0000 F1200
G01 X203.4900 Y-273.4900 Z-2.0000
G01 X203.4900 Y-280.4900 Z-2.0000
G01 X203.4900 Y-287.4900 Z-2.0000
G01 X203.4900 Y-294.4900 Z-2.0000
G01 X203.4900 Y-301.4900 Z-2.0000
G01 X203.4900 Y-308.4900 Z-2.0000
G01 X203.4900 Y-315.4900 Z-1.9200
G01 Z1 F3000
G01 X210.4900 Y-273.4900 Z1 F3000
G01 Z-1.2800 F1200
G01 X210.4900 Y-280.4900 Z-2.0000
G01 X210.4900 Y-287.4900 Z-2.0000
G01 X210.4900 Y-294.4900 Z-2.0000
G01 X210.4900 Y-301.4900 Z-2.0000
G01 X210.4900 Y-308.4900 Z-2.0000
G01 X210.4900 Y-315.4900 Z-2.0000
G01 X210.4900 Y-322.4900 Z-2.0000
G01 X210.4900 Y-329.4900 Z-1.6200
G01 Z1 F3000
G01 X217.4900 Y-287.4900 Z1 F3000
G01 Z-0.3800 F1200
G01 X217.4900 Y-294.4900 Z-1.9400
G01 X217.4900 Y-301.4900 Z-2.0000
G01 X217.4900 Y-308.4900 Z-2.0000
G01 X217.4900 Y-315.4900 Z-2.0000
G01 X217.4900 Y-322.4900 Z-2.0000
G01 X217.4900 Y-329.4900 Z-2.0000
G01 X217.4900 Y-336.4900 Z-2.0000
G01 X217.4900 Y-343.4900 Z-1.9600
G01 X217.4900 Y-350.4900 Z-0.5800
G01 Z1 F3000
G01 X224.4900 Y-308.4900 Z1 F3000
G01 Z-1.9600 F1200
G01 X224.4900 Y-315.4900 Z-2.0000
G01 X224.4900 Y-322.4900 Z-2.0000
G01 X224.4900 Y-329.4900 Z-2.0000
G01 X224.4900 Y-336.4900 Z-2.0000
G01 X224.4900 Y-343.4900 Z-2.0000
G01 X224.4900 Y-350.4900 Z-2.0000
G01 X224.4900 Y-357.4900 Z-2.0000
G01 X224.4900 Y-364.4900 Z-1.7200
G01 X224.4900 Y-371.4900 Z-0.1400
G01 Z1 F3000
G01 X231.4900 Y-322.4900 Z1 F3000
G01 Z-1.7800 F1200
G01 X231.4900 Y-329.4900 Z-2.0000
G01 X231.4900 Y-336.4900 Z-2.0000
G01 X231.4900 Y-343.4900 Z-2.0000
G01 X231.4900 Y-350.4900 Z-2.0000
G01 X231.4900 Y-357.4900 Z-2.0000
G01 X231.4900 Y-364.4900 Z-2.0000
G01 X231.4900 Y-371.4900 Z-2.0000
G01 X231.4900 Y-378.4900 Z-2.0000
G01 X231.4900 Y-385.4900 Z-0.6400
G01 Z1 F3000
G01 X238.4900 Y-336.4900 Z1 F3000
G01 Z-1.0200 F1200
G01 X238.4900 Y-343.4900 Z-2.0000
G01 X238.4900 Y-350.4900 Z-2.0000
G01 X238.4900 Y-357.4900 Z-2.0000
G01 X238.4900 Y-364.4900 Z-2.0000
G01 X238.4900 Y-371.4900 Z-2.0000
G01 X238.4900 Y-378.4900 Z-2.0000
G01 X238.4900 Y-385.4900 Z-2.0000
G01 X238.4900 Y-392.4900 Z-1.9400
G01 Z1 F3000
G01 X245.4900 Y-357.4900 Z1 F3000
G01 Z-1.4600 F1200
G01 X245.4900 Y-364.4900 Z-2.0000
G01 X245.4900 Y-371.4900 Z-2.0000
G01 X245.4900 Y-378.4900 Z-2.0000
G01 X245.4900 Y-385.4900 Z-2.0000
G01 X245.4900 Y-392.4900 Z-2.0000
G01 X245.4900 Y-399.4900 Z-2.0000
G01 X245.4900 Y-406.4900 Z-1.7200
G01 Z1 F3000
G01 X252.4900 Y-371.4900 Z1 F3000
G01 Z-0.8600 F1200
G01 X252.4900 Y-378.4900 Z-2.0000
G01 X252.4900 Y-385.4900 Z-2.0000
G01 X252.4900 Y-392.4900 Z-2.0000
G01 X252.4900 Y-399.4900 Z-2.0000
G01 X252.4900 Y-406.4900 Z-2.0000
G01 X252.4900 Y-413.4900 Z-2.0000
G01 X252.4900 Y-420.4900 Z-1.7800
G01 Z1 F3000
G01 X259.4900 Y-385.4900 Z1 F3000
G01 Z-1.2600 F1200
G01 X259.4900 Y-392.4900 Z-2.0000
G01 X259.4900 Y-399.4900 Z-2.0000
G01 X259.4900 Y-406.4900 Z-2.0000
G01 X259.4900 Y-413.4900 Z-2.0000
G01 X259.4900 Y-420.4900 Z-2.0000
G01 X259.4900 Y-427.4900 Z-2.0000
G01 X259.4900 Y-434.4900 Z-1.6200
G01 Z1 F3000
G01 X266.4900 Y-399.4900 Z1 F3000
G01 Z-1.7200 F1200
G01 X266.4900 Y-406.4900 Z-2.0000
G01 X266.4900 Y-413.4900 Z-2.0000
G01 X266.4900 Y-420.4900 Z-2.0000
G01 X266.4900 Y-427.4900 Z-2.0000
G01 X266.4900 Y-434.4900 Z-2.0000
G01 X266.4900 Y-441.4900 Z-2.0000
G01 X266.4900 Y-448.4900 Z-1.6800
G01 Z1 F3000
G01 X273.4900 Y-413.4900 Z1 F3000
G01 Z-1.6200 F1200
G01 X273.4900 Y-420.4900 Z-2.0000
G01 X273.4900 Y-427.4900 Z-2.0000
G01 X273.4900 Y-434.4900 Z-2.0000
G01 X273.4900 Y-441.4900 Z-2.0000
G01 X273.4900 Y-448.4900 Z-2.0000
G01 X273.4900 Y-455.4900 Z-2.0000
G01 X273.4900 Y-462.4900 Z-1.3200
G01 Z1 F3000
G01 X280.4900 Y-427.4900 Z1 F3000
G01 Z-1.7800 F1200
G01 X280.4900 Y-434.4900 Z-2.0000
G01 X280.4900 Y-441.4900 Z-2.0000
G01 X280.4900 Y-448.4900 Z-2.0000
G01 X280.4900 Y-455.4900 Z-2.0000
G01 X280.4900 Y-462.4900 Z-2.0000
G01 X280.4900 Y-469.4900 Z-1.3800
G01 Z1 F3000
G01 X287.4900 Y-441.4900 Z1 F3000
G01 Z-1.8600 F1200
G01 X287.4900 Y-448.4900 Z-2.0000
G01 X287.4900 Y-455.4900 Z-2.0000
G01 X287.4900 Y-462.4900 Z-2.0000
G01 X287.4900 Y-469.4900 Z-2.0000
G01 X287.4900 Y-476.4900 Z-1.9600
G01 Z1 F3000
G01 X294.4900 Y-448.4900 Z1 F3000
G01 Z-1.5000 F1200
G01 X294.4900 Y-455.4900 Z-2.0000
G01 X294.4900 Y-462.4900 Z-2.0000
G01 X294.4900 Y-469.4900 Z-2.0000
G01 X294.4900 Y-476.4900 Z-2.0000
G01 X294.4900 Y-483.4900 Z-2.0000
G01 X294.4900 Y-490.4900 Z-0.1600
G01 Z1 F3000
G01 X301.4900 Y-462.4900 Z1 F3000
G01 Z-2.0000 F1200
G01 X301.4900 Y-469.4900 Z-2.0000
G01 X301.4900 Y-476.4900 Z-2.0000
G01 X301.4900 Y-483.4900 Z-2.0000
G01 X301.4900 Y-490.4900 Z-2.0000
G01 X301.4900 Y-497.4900 Z-1.4400
G01 Z1 F3000
G01 X308.4900 Y-469.4900 Z1 F3000
G01 Z-1.9600 F1200
G01 X308.4900 Y-476.4900 Z-2.0000
G01 X308.4900 Y-483.4900 Z-2.0000
G01 X308.4900 Y-490.4900 Z-2.0000
G01 X308.4900 Y-497.4900 Z-2.0000
G01 X308.4900 Y-504.4900 Z-1.0000
G01 Z1 F3000
G01 X315.4900 Y-476.4900 Z1 F3000
G01 Z-1.5400 F1200
G01 X315.4900 Y-483.4900 Z-2.0000
G01 X315.4900 Y-490.4900 Z-2.0000
G01 X315.4900 Y-497.4900 Z-2.0000
G01 X315.4900 Y-504.4900 Z-2.0000
G01 X315.4900 Y-511.4900 Z-1.4400
G01 Z1 F3000
G01 X322.4900 Y-483.4900 Z1 F3000
G01 Z-1.0000 F1200
G01 X322.4900 Y-490.4900 Z-2.0000
G01 X322.4900 Y-497.4900 Z-2.0000
G01 X322.4900 Y-504.4900 Z-2.0000
G01 X322.4900 Y-511.4900 Z-2.0000
G01 X322.4900 Y-518.4900 Z-1.2200
G01 Z1 F3000
G01 X329.4900 Y-490.4900 Z1 F3000
G01 Z-1.4400 F1200
G01 X329.4900 Y-497.4900 Z-2.0000
G01 X329.4900 Y-504.4900 Z-2.0000
G01 X329.4900 Y-511.4900 Z-2.0000
G01 X329.4900 Y-518.4900 Z-2.0000
G01 Z1 F3000
G01 X336.4900 Y-497.4900 Z1 F3000
G01 Z-1.5800 F1200
G01 X336.4900 Y-504.4900 Z-2.0000
G01 X336.4900 Y-511.4900 Z-2.0000
G01 X336.4900 Y-518.4900 Z-2.0000
G01 X336.4900 Y-525.4900 Z-1.2600
G01 Z1 F3000
G01 X343.4900 Y-504.4900 Z1 F3000
G01 Z-2.0000 F1200
G01 X343.4900 Y-511.4900 Z-2.0000
G01 X343.4900 Y-518.4900 Z-2.0000
G01 X343.4900 Y-525.4900 Z-2.0000
G01 Z1 F3000
G01 X364.4900 Y-525.4900 Z1 F3000
G01 Z-1.2800 F1200
G01 X357.4900 Y-525.4900 Z-2.0000
G01 X350.4900 Y-525.4900 Z-2.0000
G01 Z1 F3000
G01 X350.4900 Y-504.4900 Z1 F3000
G01 Z-2.0000 F1200
G01 X350.4900 Y-511.4900 Z-2.0000
G01 X350.4900 Y-518.4900 Z-2.0000
G01 X357.4900 Y-504.4900 Z-2.0000
G01 X357.4900 Y-511.4900 Z-2.0000
G01 X357.4900 Y-518.4900 Z-2.0000
G01 Z1 F3000
G01 X378.4900 Y-518.4900 Z1 F3000
G01 Z-0.2800 F1200
G01 X371.4900 Y-518.4900 Z-2.0000
G01 X364.4900 Y-518.4900 Z-2.0000
G01 Z1 F3000
G01 X364.4900 Y-497.4900 Z1 F3000
G01 Z-1.7000 F1200
G01 X364.4900 Y-504.4900 Z-2.0000
G01 X364.4900 Y-511.4900 Z-2.0000
G01 Z1 F3000
G01 X385.4900 Y-511.4900 Z1 F3000
G01 Z-1.3600 F1200
G01 X378.4900 Y-511.4900 Z-2.0000
G01 X371.4900 Y-511.4900 Z-2.0000
G01 X385.4900 Y-504.4900 Z-2.0000
G01 X378.4900 Y-504.4900 Z-2.0000
G01 X371.4900 Y-504.4900 Z-2.0000
G01 X371.4900 Y-490.4900 Z-1.9400
G01 X371.4900 Y-497.4900 Z-2.0000
G01 Z1 F3000
G01 X392.4900 Y-497.4900 Z1 F3000
G01 Z-1.9600 F1200
G01 X385.4900 Y-497.4900 Z-2.0000
G01 X378.4900 Y-497.4900 Z-2.0000
G01 Z1 F3000
G01 X378.4900 Y-476.4900 Z1 F3000
G01 Z-0.1800 F1200
G01 X378.4900 Y-483.4900 Z-2.0000
G01 X378.4900 Y-490.4900 Z-2.0000
G01 Z1 F3000
G01 X399.4900 Y-490.4900 Z1 F3000
G01 Z-1.5400 F1200
G01 X392.4900 Y-490.4900 Z-2.0000
G01 X385.4900 Y-490.4900 Z-2.0000
G01 X399.4900 Y-483.4900 Z-2.0000
G01 X392.4900 Y-483.4900 Z-2.0000
G01 X385.4900 Y-483.4900 Z-2.0000
G01 X385.4900 Y-469.4900 Z-1.7200
G01 X385.4900 Y-476.4900 Z-2.0000
G01 Z1 F3000
G01 X406.4900 Y-476.4900 Z1 F3000
G01 Z-1.7200 F1200
G01 X399.4900 Y-476.4900 Z-2.0000
G01 X392.4900 Y-476.4900 Z-2.0000
G01 X406.4900 Y-469.4900 Z-2.0000
G01 X399.4900 Y-469.4900 Z-2.0000
G01 X392.4900 Y-469.4900 Z-2.0000
G01 X392.4900 Y-455.4900 Z-1.2600
G01 X392.4900 Y-462.4900 Z-2.0000
G01 Z1 F3000
G01 X413.4900 Y-462.4900 Z1 F3000
G01 Z-1.9400 F1200
G01 X406.4900 Y-462.4900 Z-2.0000
G01 X399.4900 Y-462.4900 Z-2.0000
G01 Z1 F3000
G01 X399.4900 Y-441.4900 Z1 F3000
G01 Z-0.8600 F1200
G01 X399.4900 Y-448.4900 Z-2.0000
G01 X399.4900 Y-455.4900 Z-2.0000
G01 Z1 F3000
G01 X420.4900 Y-455.4900 Z1 F3000
G01 Z-0.6400 F1200
G01 X413.4900 Y-455.4900 Z-2.0000
G01 X406.4900 Y-455.4900 Z-2.0000
G01 X420.4900 Y-448.4900 Z-2.0000
G01 X413.4900 Y-448.4900 Z-2.0000
G01 X406.4900 Y-448.4900 Z-2.0000
G01 Z1 F3000
G01 X406.4900 Y-427.4900 Z1 F3000
G01 Z-0.2800 F1200
G01 X406.4900 Y-434.4900 Z-2.0000
G01 X406.4900 Y-441.4900 Z-2.0000
G01 Z1 F3000
G01 X427.4900 Y-441.4900 Z1 F3000
G01 Z-1.6200 F1200
G01 X420.4900 Y-441.4900 Z-2.0000
G01 X413.4900 Y-441.4900 Z-2.0000
G01 X427.4900 Y-434.4900 Z-2.0000
G01 X420.4900 Y-434.4900 Z-2.0000
G01 X413.4900 Y-434.4900 Z-2.0000
G01 X413.4900 Y-420.4900 Z-1.6400
G01 X413.4900 Y-427.4900 Z-2.0000
G01 Z1 F3000
G01 X434.4900 Y-427.4900 Z1 F3000
G01 Z-1.9400 F1200
G01 X427.4900 Y-427.4900 Z-2.0000
G01 X420.4900 Y-427.4900 Z-2.0000
G01 Z1 F3000
G01 X420.4900 Y-406.4900 Z1 F3000
G01 Z-0.3200 F1200
G01 X420.4900 Y-413.4900 Z-2.0000
G01 X420.4900 Y-420.4900 Z-2.0000
G01 Z1 F3000
G01 X441.4900 Y-420.4900 Z1 F3000
G01 Z-0.9200 F1200
G01 X434.4900 Y-420.4900 Z-2.0000
G01 X427.4900 Y-420.4900 Z-2.0000
G01 X441.4900 Y-413.4900 Z-2.0000
G01 X434.4900 Y-413.4900 Z-2.0000
G01 X427.4900 Y-413.4900 Z-2.0000
G01 X427.4900 Y-399.4900 Z-1.9400
G01 X427.4900 Y-406.4900 Z-2.0000
G01 Z1 F3000
G01 X448.4900 Y-406.4900 Z1 F3000
G01 Z-1.9400 F1200
G01 X441.4900 Y-406.4900 Z-2.0000
G01 X434.4900 Y-406.4900 Z-2.0000
G01 X448.4900 Y-399.4900 Z-2.0000
G01 X441.4900 Y-399.4900 Z-2.0000
G01 X434.4900 Y-399.4900 Z-2.0000
G01 X434.4900 Y-385.4900 Z-1.2800
G01 X434.4900 Y-392.4900 Z-2.0000
G01 Z1 F3000
G01 X455.4900 Y-392.4900 Z1 F3000
G01 Z-1.9600 F1200
G01 X448.4900 Y-392.4900 Z-2.0000
G01 X441.4900 Y-392.4900 Z-2.0000
G01 Z1 F3000
G01 X441.4900 Y-371.4900 Z1 F3000
G01 Z-1.3400 F1200
G01 X441.4900 Y-378.4900 Z-2.0000
G01 X441.4900 Y-385.4900 Z-2.0000
G01 Z1 F3000
G01 X462.4900 Y-385.4900 Z1 F3000
G01 Z-1.4200 F1200
G01 X455.4900 Y-385.4900 Z-2.0000
G01 X448.4900 Y-385.4900 Z-2.0000
G01 X462.4900 Y-378.4900 Z-2.0000
G01 X455.4900 Y-378.4900 Z-2.0000
G01 X448.4900 Y-378.4900 Z-2.0000
G01 X448.4900 Y-364.4900 Z-1.8000
G01 X448.4900 Y-371.4900 Z-2.0000
G01 Z1 F3000
G01 X469.4900 Y-371.4900 Z1 F3000
G01 Z-1.5200 F1200
G01 X462.4900 Y-371.4900 Z-2.0000
G01 X455.4900 Y-371.4900 Z-2.0000
G01 Z1 F3000
G01 X455.4900 Y-350.4900 Z1 F3000
G01 Z-1.2000 F1200
G01 X455.4900 Y-357.4900 Z-2.0000
G01 X455.4900 Y-364.4900 Z-2.0000
G01 Z1 F3000
G01 X476.4900 Y-364.4900 Z1 F3000
G01 Z-0.1600 F1200
G01 X469.4900 Y-364.4900 Z-2.0000
G01 X462.4900 Y-364.4900 Z-2.0000
G01 X476.4900 Y-357.4900 Z-2.0000
G01 X469.4900 Y-357.4900 Z-2.0000
G01 X462.4900 Y-357.4900 Z-2.0000
G01 X462.4900 Y-343.4900 Z-2.0000
G01 X462.4900 Y-350.4900 Z-2.0000
G01 Z1 F3000
G01 X483.4900 Y-350.4900 Z1 F3000
G01 Z-1.4200 F1200
G01 X476.4900 Y-350.4900 Z-2.0000
G01 X469.4900 Y-350.4900 Z-2.0000
G01 Z1 F3000
G01 X469.4900 Y-329.4900 Z1 F3000
G01 Z-1.0000 F1200
G01 X469.4900 Y-336.4900 Z-2.0000
G01 X469.4900 Y-343.4900 Z-2.0000
G01 Z1 F3000
G01 X490.4900 Y-343.4900 Z1 F3000
G01 Z-0.2800 F1200
G01 X483.4900 Y-343.4900 Z-2.0000
G01 X476.4900 Y-343.4900 Z-2.0000
G01 X490.4900 Y-336.4900 Z-2.0000
G01 X483.4900 Y-336.4900 Z-2.0000
G01 X476.4900 Y-336.4900 Z-2.0000
G01 X476.4900 Y-322.4900 Z-1.9600
G01 X476.4900 Y-329.4900 Z-2.0000
G01 Z1 F3000
G01 X497.4900 Y-329.4900 Z1 F3000
G01 Z-1.9400 F1200
G01 X490.4900 Y-329.4900 Z-2.0000
G01 X483.4900 Y-329.4900 Z-2.0000
G01 Z1 F3000
G01 X483.4900 Y-308.4900 Z1 F3000
G01 Z-0.6800 F1200
G01 X483.4900 Y-315.4900 Z-2.0000
G01 X483.4900 Y-322.4900 Z-2.0000
G01 Z1 F3000
G01 X504.4900 Y-322.4900 Z1 F3000
G01 Z-0.6800 F1200
G01 X497.4900 Y-322.4900 Z-2.0000
G01 X490.4900 Y-322.4900 Z-2.0000
G01 X504.4900 Y-315.4900 Z-2.0000
G01 X497.4900 Y-315.4900 Z-2.0000
G01 X490.4900 Y-315.4900 Z-2.0000
G01 X490.4900 Y-301.4900 Z-1.9400
G01 X490.4900 Y-308.4900 Z-2.0000
G01 Z1 F3000
G01 X511.4900 Y-308.4900 Z1 F3000
G01 Z-1.9400 F1200
G01 X504.4900 Y-308.4900 Z-2.0000
G01 X497.4900 Y-308.4900 Z-2.0000
G01 Z1 F3000
G01 X497.4900 Y-287.4900 Z1 F3000
G01 Z-1.4600 F1200
G01 X497.4900 Y-294.4900 Z-2.0000
G01 X497.4900 Y-301.4900 Z-2.0000
G01 Z1 F3000
G01 X518.4900 Y-301.4900 Z1 F3000
G01 Z-1.4800 F1200
G01 X511.4900 Y-301.4900 Z-2.0000
G01 X504.4900 Y-301.4900 Z-2.0000
G01 X518.4900 Y-294.4900 Z-2.0000
G01 X511.4900 Y-294.4900 Z-2.0000
G01 X504.4900 Y-294.4900 Z-2.0000
G01 X504.4900 Y-280.4900 Z-1.5000
G01 X504.4900 Y-287.4900 Z-2.0000
G01 Z1 F3000
G01 X525.4900 Y-287.4900 Z1 F3000
G01 Z-2.0000 F1200
G01 X518.4900 Y-287.4900 Z-2.0000
G01 X511.4900 Y-287.4900 Z-2.0000
G01 Z1 F3000
G01 X511.4900 Y-266.4900 Z1 F3000
G01 Z-1.2200 F1200
G01 X511.4900 Y-273.4900 Z-2.0000
G01 X511.4900 Y-280.4900 Z-2.0000
G01 Z1 F3000
G01 X532.4900 Y-280.4900 Z1 F3000
G01 Z-1.9800 F1200
G01 X525.4900 Y-280.4900 Z-2.0000
G01 X518.4900 Y-280.4900 Z-2.0000
G01 Z1 F3000
G01 X518.4900 Y-259.4900 Z1 F3000
G01 Z-1.5600 F1200
G01 X525.4900 Y-259.4900 Z-2.0000
G01 X532.4900 Y-259.4900 Z-2.0000
G01 X539.4900 Y-259.4900 Z-2.0000
G01 X539.4900 Y-273.4900 Z-2.0000
G01 X532.4900 Y-273.4900 Z-2.0000
G01 X525.4900 Y-273.4900 Z-2.0000
G01 X518.4900 Y-273.4900 Z-2.0000
G01 X518.4900 Y-266.4900 Z-2.0000
G01 X525.4900 Y-266.4900 Z-2.0000
G01 X532.4900 Y-266.4900 Z-2.0000
G01 X539.4900 Y-266.4900 Z-2.0000
G01 X539.4900 Y-266.4900 Z1; With new deep step
G01 Z1; With Z max
;Generated in 0.132 sec.